X:53
T:The Neighbour's Flying Cat
C:Romain Ch\'er\'e
R:Reel
M:C
K:D
AddA =cABG|EGDG EGFG|AddA
=cABG|EGDE G2 G2|
AddA =cABG|EGDG EGFG|AddA
=cABG|EGDE G2 ed|
c~E3 B~E3|A~E3 BcdB|e~g3 b~g3|a~g3
f2 ed|
c~E3 B~E3|A~E3 BcdB|edcA GEDE|GBAG A4|
